src/section/s1/slowliving.svg

<svg width="691" height="23" viewBox="0 0 691 23" fill="none" xmlns="http://www.w3.org/2000/svg">
<g clip-path="url(#clip0_3_102)">
<path d="M6.57828 13.3522L4.17159 11.8867C2.64736 10.9504 1.60446 10.0142 0.962675 9.11858C0.320892 8.22301 0 7.1646 0 5.98407C0 4.23363 0.601672 2.80885 1.80502 1.70973C3.00836 0.569911 4.57271 0 6.53817 0C8.50363 0 10.068 0.529204 11.6323 1.58761V5.25133C10.0279 3.70442 8.30307 2.93097 6.49805 2.93097C5.45516 2.93097 4.61282 3.17522 3.93092 3.66372C3.24903 4.15221 2.92814 4.76283 2.92814 5.53628C2.92814 6.22832 3.1688 6.83894 3.65014 7.40885C4.13148 7.97876 4.93371 8.63009 6.01672 9.24071L8.4234 10.7062C11.1109 12.3345 12.4747 14.4106 12.4747 16.9345C12.4747 18.7257 11.873 20.1911 10.7098 21.331C9.50641 22.4708 7.98218 23.0407 6.09694 23.0407C3.93092 23.0407 1.92535 22.3487 0.120334 21.0053V16.9345C1.84513 19.1327 3.81059 20.2319 6.05683 20.2319C7.05962 20.2319 7.86185 19.9469 8.54374 19.377C9.18552 18.8071 9.54653 18.115 9.54653 17.2602C9.54653 15.8761 8.58385 14.6142 6.61839 13.3522H6.57828Z" fill="#A77C22"/>
<path d="M71.0374 0.325684H74.2062V19.8248H84.1538V22.7558H71.0374V0.325684Z" fill="#A77C22"/>
<path d="M152.905 0C156.314 0 159.162 1.09912 161.449 3.29735C163.735 5.49558 164.858 8.22301 164.858 11.5611C164.858 14.8991 163.695 17.6265 161.408 19.7841C159.122 21.9416 156.234 23.0407 152.744 23.0407C149.255 23.0407 146.647 21.9416 144.401 19.7841C142.195 17.6265 141.072 14.8991 141.072 11.6425C141.072 8.38584 142.195 5.53628 144.441 3.33805C146.688 1.13982 149.495 0.040708 152.905 0.040708V0ZM153.025 3.0531C150.498 3.0531 148.412 3.86726 146.808 5.45487C145.163 7.04248 144.361 9.11858 144.361 11.6018C144.361 14.085 145.163 16.0389 146.808 17.6265C148.452 19.2142 150.498 20.0283 152.945 20.0283C155.392 20.0283 157.478 19.2142 159.122 17.5858C160.767 15.9575 161.609 13.9221 161.609 11.4796C161.609 9.03717 160.767 7.08319 159.122 5.49558C157.478 3.90796 155.432 3.0531 153.025 3.0531Z" fill="#A77C22"/>
<path d="M250.656 0.325684H253.825L244.88 22.8779H244.199L236.978 4.64073L229.678 22.8779H228.996L220.092 0.325684H223.26L229.357 15.7947L235.494 0.325684H238.503L244.68 15.7947L250.656 0.325684Z" fill="#A77C22"/>
<path d="M319.167 0.325684H322.336V19.8248H332.283V22.7558H319.167V0.325684Z" fill="#A77C22"/>
<path d="M390.164 0.325684H393.333V22.7558H390.164V0.325684Z" fill="#A77C22"/>
<path d="M467.339 0.325684H470.507L461.161 22.8779H460.439L450.893 0.325684H454.062L460.72 16.0797L467.339 0.325684Z" fill="#A77C22"/>
<path d="M528.067 0.325684H531.236V22.7558H528.067V0.325684Z" fill="#A77C22"/>
<path d="M608.772 0.325684H611.78V22.7558H609.052L594.291 5.45489V22.7558H591.323V0.325684H593.89L608.812 17.7487V0.325684H608.772Z" fill="#A77C22"/>
<path d="M683.579 11.7239H691V21.2496C688.272 22.4301 685.585 23.0407 682.897 23.0407C679.247 23.0407 676.319 21.9416 674.113 19.7841C671.947 17.6266 670.824 14.9398 670.824 11.7646C670.824 8.42655 671.947 5.6177 674.233 3.37876C676.52 1.13983 679.328 0.0407104 682.777 0.0407104C684.021 0.0407104 685.224 0.162834 686.307 0.44779C687.43 0.732746 688.834 1.22124 690.559 1.95398V5.21062C687.911 3.66372 685.304 2.89027 682.697 2.89027C680.29 2.89027 678.245 3.74514 676.6 5.41416C674.955 7.08319 674.113 9.11859 674.113 11.5611C674.113 14.1257 674.955 16.2018 676.6 17.8301C678.245 19.4584 680.37 20.2726 682.978 20.2726C684.261 20.2726 685.745 19.9876 687.51 19.377L687.831 19.2956V14.6142H683.579V11.7646V11.7239Z" fill="#A77C22"/>
</g>
<defs>
<clipPath id="clip0_3_102">
<rect width="691" height="23" fill="white"/>
</clipPath>
</defs>
</svg>

<svg width="691" height="23" viewBox="0 0 691 23" fill="#A77C22" xmlns="http://www.w3.org/2000/svg">
<path d="M11.6,5.3C8.4,1.8,2.9,2.4,2.9,5.5c0,4.4,9.5,4.4,9.5,11.4c0,6.1-7.3,7.9-12.4,4.1v-4.1
	c3.1,4.5,9.4,4.2,9.4,0.3C9.5,12.6,0,12.4,0,6c0-6.4,7.9-7.2,11.6-4.4 M71,0.3h3.2v19.5h9.9v2.9H71 M164.9,11.6
	c0.1,15.2-23.7,15.3-23.8,0.1C141-3.8,164.8-3.9,164.9,11.6z M144.4,11.6c0,11.3,17.2,11.2,17.2-0.1C161.6,0.2,144.4,0.3,144.4,11.6
	z M253.8,0.3l-8.9,22.6h-0.7L237,4.6l-7.3,18.2H229l-8.9-22.6 M238.5,0.3l6.2,15.5l6-15.5 M223.3,0.3l6.1,15.5l6.1-15.5 M319.2,0.3
	h3.2v19.5h9.9v2.9h-13.1 M390.2,0.3h3.2v22.4h-3.2 M470.5,0.3l-9.3,22.6h-0.7l-9.5-22.6 M454.1,0.3l6.7,15.8l6.6-15.8 M528.1,0.3
	h3.2v22.4h-3.2 M608.8,17.7V0.3h0h3v22.4h-2.7L594.3,5.5v17.3h-3V0.3h2.6 M691,21.2c-8,3.9-20.2,1.4-20.2-9.5
	c0-11,11.8-14.1,19.7-9.8v3.3c-7.1-4.6-16.4-2.2-16.4,6.4c0,7.3,7.4,10.5,13.7,7.7v-4.7h-4.3v-2.9h7.4"/>
</svg>
